// @title percussion-variation
// @by leo

samples('github:tidalcycles/dirt-samples')
setcps(130/60/4)

stack(
  s("[rim:1(3,8,<0 0 0 1>)]*2 6 9 5"),
  //s("[voodoo:1 ~]*8"),
  s("[bd(3, 5 8) [sn(3, 4 8) sn(2, 3 8)]]"),
  s("[mouth:2*16?0.2|mouth:2*32?0.7]"),
)
.every(4, x=>x.slow(4)
  .delay(0.4)
  .hurry(2)
  .degradeBy(0.25)
  .ply("2 0.4 3 0.2")
       
       )