s0.initCam();

src(s0)
	.modulatePixelate(noise(9,0.12),16)
	.modulate(osc(2,0.1,0.3),2)
// 	.modulateKaleid(osc(16,0.1,0.1),6)
	.mult(shape(3, () => Math.sin(time) * 0.05 + 0.4, 0.02).scale(1, 9/16))
	.modulate(noise(1, 0.02), 0.04)
	
	.out(o2)
render(o2)
